src/topics/icons/d3.svg

<svg height="243" preserveAspectRatio="xMidYMid" viewBox="0 0 256 243" width="256" xmlns="http://www.w3.org/2000/svg" xmlns:xlink="http://www.w3.org/1999/xlink"><linearGradient id="a"><stop offset="0" stop-color="#f9a03c"/><stop offset="1" stop-color="#f7974e"/></linearGradient><linearGradient id="b" x1="-82.636726%" x2="103.767353%" xlink:href="#a" y1="-92.819878%" y2="106.041826%"/><linearGradient id="c" x1="-258.923825%" x2="97.620248%" xlink:href="#a" y1="-248.970263%" y2="98.768494%"/><linearGradient id="d" x1="-223.162629%" x2="94.028338%" xlink:href="#a" y1="-261.967947%" y2="101.690818%"/><linearGradient id="e" x1="11.338712%" x2="82.496193%" y1="-1.821698%" y2="92.106748%"><stop offset="0" stop-color="#f26d58"/><stop offset="1" stop-color="#f9a03c"/></linearGradient><linearGradient id="f" x1="15.843647%" x2="120.126091%" y1="3.858031%" y2="72.380258%"><stop offset="0" stop-color="#b84e51"/><stop offset="1" stop-color="#f68e48"/></linearGradient><linearGradient id="g" x1="46.984171%" x2="51.881003%" xlink:href="#a" y1="23.466433%" y2="147.391179%"/><path d="m255.52 175.618667c.114667-1.114667.197333-2.24.261333-3.370667.077334-1.338667-80.562666-77.8506667-80.562666-77.8506667h-1.928s81.736 86.2159997 82.229333 81.2213337z" fill="url(#b)"/><path d="m83.472 149.077333c-.1066667.234667-.2133333.469334-.3226667.704-.1146666.245334-.232.490667-.3493333.733334-2.5706667 5.36 35.986667 43.053333 39.088 38.474666.141333-.202666.282667-.416.424-.618666.157333-.24.312-.469334.466667-.709334 2.48-3.765333-38.2053337-41.032-39.306667-38.584z" fill="url(#c)"/><path d="m137.957333 202.082667c-.109333.24-.885333 1.552-1.594666 2.245333-.12.24 37.64 37.688 37.64 37.688h3.4c.002666 0-35.445334-38.349333-39.445334-39.933333z" fill="url(#d)"/><path d="m255.834667 171.568c-1.765334 39.146667-34.152 70.448-73.72 70.448h-5.349334l-39.514666-38.928c3.250666-4.584 6.272-9.333333 8.962666-14.285333h35.901334c11.354666 0 20.594666-9.234667 20.594666-20.594667 0-11.354667-9.24-20.594667-20.594666-20.594667h-21.245334c1.618667-8.557333 2.504-17.381333 2.504-26.408 0-9.165333-.901333-18.114666-2.578666-26.8079997h13.197333l81.610667 80.4133337c.096-1.077334.173333-2.154667.232-3.242667zm-234.3680003-171.568h-21.4666667v53.2133333h21.4666667c37.4933333 0 68 30.4986667 68 67.9919997 0 10.2-2.2746667 19.882667-6.3173334 28.576l39.1626667 38.589334c12.858667-19.24 20.376-42.338667 20.376-67.165334 0-66.8319997-54.3813333-121.205333-121.2213333-121.205333z" fill="url(#e)"/><path d="m182.114667 0h-86.9280003c21.2320003 12.9626667 38.8133333 31.344 50.7920003 53.2133333h36.136c11.354666 0 20.594666 9.2346667 20.594666 20.5946667 0 11.3573333-9.24 20.592-20.594666 20.592h-8.12l81.610666 80.413333c.192-2.181333.312-4.376.312-6.605333 0-17.938667-6.437333-34.394667-17.125333-47.202667 10.688-12.802666 17.125333-29.261333 17.125333-47.197333 0-40.696-33.104-73.808-73.802666-73.808z" fill="url(#f)"/><path d="m176.765333 242.016h-80.957333c16.296-10.064 30.384-23.349333 41.442667-38.928zm-54.453333-53.645333-39.16-38.589334c-10.8186667 23.250667-34.3946667 39.421334-61.6853333 39.421334h-21.4666667v53.208h21.4666667c42.0106666 0 79.0906663-21.488 100.8453333-54.04z" fill="url(#g)"/></svg>

<?xml version="1.0" encoding="UTF-8" standalone="no" ?>
<svg width="256px" height="243px" viewBox="0 0 256 243" version="1.1" xmlns="http://www.w3.org/2000/svg" xmlns:xlink="http://www.w3.org/1999/xlink" preserveAspectRatio="xMidYMid">
    <defs>
        <linearGradient x1="-82.6367258%" y1="-92.819878%" x2="103.767353%" y2="106.041826%" id="linearGradient-1">
            <stop stop-color="#F9A03C" offset="0%"></stop>
            <stop stop-color="#F7974E" offset="100%"></stop>
        </linearGradient>
        <linearGradient x1="-258.923825%" y1="-248.970263%" x2="97.6202479%" y2="98.7684937%" id="linearGradient-2">
            <stop stop-color="#F9A03C" offset="0%"></stop>
            <stop stop-color="#F7974E" offset="100%"></stop>
        </linearGradient>
        <linearGradient x1="-223.162629%" y1="-261.967947%" x2="94.0283377%" y2="101.690818%" id="linearGradient-3">
            <stop stop-color="#F9A03C" offset="0%"></stop>
            <stop stop-color="#F7974E" offset="100%"></stop>
        </linearGradient>
        <linearGradient x1="11.3387123%" y1="-1.82169774%" x2="82.496193%" y2="92.1067478%" id="linearGradient-4">
            <stop stop-color="#F26D58" offset="0%"></stop>
            <stop stop-color="#F9A03C" offset="100%"></stop>
        </linearGradient>
        <linearGradient x1="15.8436473%" y1="3.85803114%" x2="120.126091%" y2="72.3802579%" id="linearGradient-5">
            <stop stop-color="#B84E51" offset="0%"></stop>
            <stop stop-color="#F68E48" offset="100%"></stop>
        </linearGradient>
        <linearGradient x1="46.9841705%" y1="23.4664325%" x2="51.881003%" y2="147.391179%" id="linearGradient-6">
            <stop stop-color="#F9A03C" offset="0%"></stop>
            <stop stop-color="#F7974E" offset="100%"></stop>
        </linearGradient>
    </defs>
    <g>
        <path d="M255.52,175.618667 C255.634667,174.504 255.717333,173.378667 255.781333,172.248 C255.858667,170.909333 175.218667,94.3973333 175.218667,94.3973333 L173.290667,94.3973333 C173.290667,94.3973333 255.026667,180.613333 255.52,175.618667 L255.52,175.618667 L255.52,175.618667 Z" fill="url(#linearGradient-1)"></path>
        <path d="M83.472,149.077333 C83.3653333,149.312 83.2586667,149.546667 83.1493333,149.781333 C83.0346667,150.026667 82.9173333,150.272 82.8,150.514667 C80.2293333,155.874667 118.786667,193.568 121.888,188.989333 C122.029333,188.786667 122.170667,188.573333 122.312,188.370667 C122.469333,188.130667 122.624,187.901333 122.778667,187.661333 C125.258667,183.896 84.5733333,146.629333 83.472,149.077333 L83.472,149.077333 L83.472,149.077333 Z" fill="url(#linearGradient-2)"></path>
        <path d="M137.957333,202.082667 C137.848,202.322667 137.072,203.634667 136.362667,204.328 C136.242667,204.568 174.002667,242.016 174.002667,242.016 L177.402667,242.016 C177.405333,242.016 141.957333,203.666667 137.957333,202.082667 L137.957333,202.082667 L137.957333,202.082667 Z" fill="url(#linearGradient-3)"></path>
        <path d="M255.834667,171.568 C254.069333,210.714667 221.682667,242.016 182.114667,242.016 L176.765333,242.016 L137.250667,203.088 C140.501333,198.504 143.522667,193.754667 146.213333,188.802667 L182.114667,188.802667 C193.469333,188.802667 202.709333,179.568 202.709333,168.208 C202.709333,156.853333 193.469333,147.613333 182.114667,147.613333 L160.869333,147.613333 C162.488,139.056 163.373333,130.232 163.373333,121.205333 C163.373333,112.04 162.472,103.090667 160.794667,94.3973333 L173.992,94.3973333 L255.602667,174.810667 C255.698667,173.733333 255.776,172.656 255.834667,171.568 L255.834667,171.568 L255.834667,171.568 Z M21.4666667,0 L0,0 L0,53.2133333 L21.4666667,53.2133333 C58.96,53.2133333 89.4666667,83.712 89.4666667,121.205333 C89.4666667,131.405333 87.192,141.088 83.1493333,149.781333 L122.312,188.370667 C135.170667,169.130667 142.688,146.032 142.688,121.205333 C142.688,54.3733333 88.3066667,0 21.4666667,0 L21.4666667,0 L21.4666667,0 Z" fill="url(#linearGradient-4)"></path>
        <path d="M182.114667,0 L95.1866667,0 C116.418667,12.9626667 134,31.344 145.978667,53.2133333 L182.114667,53.2133333 C193.469333,53.2133333 202.709333,62.448 202.709333,73.808 C202.709333,85.1653333 193.469333,94.4 182.114667,94.4 L173.994667,94.4 L255.605333,174.813333 C255.797333,172.632 255.917333,170.437333 255.917333,168.208 C255.917333,150.269333 249.48,133.813333 238.792,121.005333 C249.48,108.202667 255.917333,91.744 255.917333,73.808 C255.917333,33.112 222.813333,0 182.114667,0 L182.114667,0 L182.114667,0 Z" fill="url(#linearGradient-5)"></path>
        <path d="M176.765333,242.016 L95.808,242.016 C112.104,231.952 126.192,218.666667 137.250667,203.088 L176.765333,242.016 L176.765333,242.016 Z M122.312,188.370667 L83.152,149.781333 C72.3333333,173.032 48.7573333,189.202667 21.4666667,189.202667 L0,189.202667 L0,242.410667 L21.4666667,242.410667 C63.4773333,242.410667 100.557333,220.922667 122.312,188.370667 L122.312,188.370667 L122.312,188.370667 Z" fill="url(#linearGradient-6)"></path>
    </g>
</svg>
